src/pos-icons/shredder.svg

<svg height="24" viewBox="0 0 24 24" width="24" xmlns="http://www.w3.org/2000/svg"><path d="m6 3v4h2v-2h8v2h2v-4zm-1 5a3 3 0 0 0 -3 3v6h3v-3h14v3h3v-6a3 3 0 0 0 -3-3zm13 2a1 1 0 0 1 1 1 1 1 0 0 1 -1 1 1 1 0 0 1 -1-1 1 1 0 0 1 1-1m-11 6v5h2v-5zm4 0v4h2v-4zm4 0v5h2v-5z"/></svg>

<?xml version="1.0" encoding="UTF-8"?><!DOCTYPE svg PUBLIC "-//W3C//DTD SVG 1.1//EN" "http://www.w3.org/Graphics/SVG/1.1/DTD/svg11.dtd"><svg xmlns="http://www.w3.org/2000/svg" xmlns:xlink="http://www.w3.org/1999/xlink" version="1.1" id="mdi-shredder" width="24" height="24" viewBox="0 0 24 24"><path d="M6,3V7H8V5H16V7H18V3H6M5,8A3,3 0 0,0 2,11V17H5V14H19V17H22V11A3,3 0 0,0 19,8H5M18,10A1,1 0 0,1 19,11A1,1 0 0,1 18,12A1,1 0 0,1 17,11A1,1 0 0,1 18,10M7,16V21H9V16H7M11,16V20H13V16H11M15,16V21H17V16H15Z" /></svg>
